X:1
T:Abide with ME
T:Abide With Me 
T:EVENTIDE
T:Henry F. Lyte
T:William H. Monk
C:Henry F. Lyte
Z:William H. Monk
%%score [ 1 2 3 4 ]
L:1/8
M:4/4
K:C
V:1 alto nm="Violin I"
V:2 alto nm="Violin II"
V:3 alto nm="Viola"
V:4 alto nm="Violoncello"
V:1
 G4 G2 F2 | _E4 _B4 | c2 _B2 B2 _A2 | G8 | G4 _A2 _B2 | c4 _B4 | _A2 F2 G2 =A2 | _B8 | G4 G2 F2 | %9
 _E4 _B4 | _B2 _A2 A2 G2 | F8 | F4 G2 _A2 | G2 F2 _E2 _A2 | G4 F4 | _E8 | z8 | z8 | z8 | z8 | z8 | %21
 z8 | z8 | z8 | z8 | z8 | z8 | z8 | z8 | z8 | z8 | z8 |] %32
V:2
!p! _B,4 B,2 _A,2 | G,4 _E,4 | _E,2 _B,2 B,2 B,2 | _B,8 | _B,4 _A,2 G,2 | _A,4 G,4 | %6
 C2 _B,2 B,2 _E,2 | _E,8 | G,2 _A,2 _B,2 A,2 | G,4 _E2 D2 | C2 C2 C2 _B,2 | _B,8 | _B,4 B,2 B,2 | %13
 _B,2 _A,2 G,2 C2 | _B,6 _A,2 | G,8 | z8 | z8 | z8 | z8 | z8 | z8 | z8 | z8 | z8 | z8 | z8 | z8 | %28
 z8 | z8 | z8 | z8 |] %32
V:3
!f! !3!_E4 D2 D2 | _E4 E4 | _E2 D2 E2 F2 | _E8 | _E4 E2 E2 | _E4 E4 | _E2 F2 E2 E2 | D8 | %8
 _E4 D2 D2 | _E4 E4 | _E2 E2 E2 E2 | F8 | D4 _E2 D2 | _E2 D2 E2 F2 | _E4 D4 | _E8 | z8 | z8 | z8 | %19
 z8 | z8 | z8 | z8 | z8 | z8 | z8 | z8 | z8 | z8 | z8 | z8 | z8 |] %32
V:4
 _E,4 _B,,2 B,,2 | C,4 G,,4 | _A,,2 _B,,2 C,2 D,2 | _E,8 | _E,2 D,2 C,2 _B,,2 | _A,,4 _E,4 | %6
 F,2 D,2 _E,2 C,2 | _B,,8 | _E,4 _B,,2 B,,2 | C,4 G,,4 | _A,,3 _B,, C,2 C,2 | F,8 | _A,4 G,2 F,2 | %13
 _E,2 _B,,2 C,2 _A,,2 | _B,,4 B,,4 | _E,8 | z8 | z8 | z8 | z8 | z8 | z8 | z8 | z8 | z8 | z8 | z8 | %27
 z8 | z8 | z8 | z8 | z8 |] %32

